X:25
T:Kapylan Poikain Viinapolkka  (Kapylan boys' hard liquor polka)
M:2/4
L:1/16
Q:1/4=120
R:polka
K:G
|: d |"G" B3B B2B2 | BGBd B2B2 | "C" c3c c2c2 | cGce c2c2 |
"D7" d2dd d2f2 | aa.a2 gg.g2 | !
ff.f2 eee2 | ddd2 ccc2 | "G" B3B B2B2 | BGBd B2B2 | "C" c3c c2c2 | !
cGce c2c2 | "D7" d2dd d2f2 | aa.a2 gg.g2 | f2f2 f2ef | "G" g2g2 g2 z :| !
|: a |"G" b2b2 b2ab | "C" c'2e2 e3g | "D" f2f2 ffef | "G" g2B2 d3g | !
"G" b2b2 b2ab | "C" c'2e2 e3g | "D" f2f2 ffef | "G" g2g2 g2 z :||
